X:13
T: Aunt Mary's Canadian Jig
I: Aunt Mary's Canadian JigJ-36Djig
M: 6/8
R: jig
K: D
z2A| "D"f2f fga| d2d dcB| ABA "B7"AGF| "Em"E2E E2A|
   "A7"e2e efg| e2d c2B| ABA ABA|1 "D"F3 :|2 "D"d3 |]
|:z2A| "D"ABA faf| e2d d2z| AFA "B7"BcB| "Em"A2G G2z|
   "A7"GFG efe| d2c c2B|1 ABA ABA| "D"F3  :|2 "A7"ABA ABc| "D"d3 |]
%%text Roaring Jelly J-36
%%text 08/29/98
